X:641
T:Reel 641
M:4/4
K:Amin
L:1/8
ED|CA,G,A, E,D,D,2|E,A,A,^G, A,B,CD|E^FGE DB,A,G,|E,G,G,F, G,2A,B,|CA,B,A, G,E,D,G,|E,A,A,^G, A,B,CD|E^FGE DB,A,G,|E,A,A,^G, A,2|E,^G,|A,2CE AECA,|G,2B,D GDB,G,|A,2CE AECE|D^CDE DB,G,B,|A,2CE AECA,|G,2B,D GDEC|A,B,CE DB,A,G,|E,A,A,^G, A,2|
